X:1
T:Ne crains point le serein
T:Constantijn Huygens
T:Ne crains point le serein
T:Serenade
C:Constantijn Huygens
%%score 1 2 { ( 3 5 ) | 4 }
L:1/8
Q:1/4=60
M:3/4
K:C
V:1 treble-8 nm="Tenor" snm="T"
V:2 treble transpose=-12 nm="Viola da Gamba" snm="V.Gam."
V:3 treble nm="Harpsichord" snm="Hpschd."
V:5 treble 
V:4 bass 
V:1
 z2 c2 d2 | e3 B c2 | ^GG A2 EA | Bc de c2 | A2 z2 e^f | g4 dc |[M:4/4] B2 c2 d2 G2 | B3 A ^G4 | %8
w: Ne crains|point le se-|rein, Si- re- ne, Si-|re- ne de mon a-|me, L'air ne|fait point d'ef-|fort sur ta di-|vi- ni- té:|
[M:3/4] z2 z2 cd | e2 B2 c2 | ^GG A2 EA | Bc de c2 | A2 z2 e^f | g4 dc |[M:4/4] B2 ^c2 d2 e2- | %15
w: Lu- mi-|naire im- mor-|tel, ar- res- te, ar-|res- te un peu ta flam-|me, Il n'en|faut qu'un ra-|yon pour un grand|
 e2 ^de e4 |:[M:3/4] z6 | z B B2 ^GG |[M:4/4] A2 B4 ^FE |[M:3/4] E2 BB B2 | c2 z2 ^c2 | d4 G2 | %22
w: _ jour d'es- té.||Que di- je? que|di- je? el- le s'en|va, je la voy|qui som-|meil- le. A-|
[M:4/4] c2 c2 d3 e |[M:3/4] e3 e e^f | g2 ^f2 e2 | d3 d e2 | ^f2 B2 d2- | d4 GA | B2 B2 ^F2 | %29
w: dieu clar- té des|cieux, Puis- que Clo-|ris, leur u-|ni- que mer-|veil- le, N'a|_ point d'o-|reil- le, La|
 G2 E2 cd |[M:4/4] e8- | e2 B2 B3 A | A8 :| %33
w: ter- re, la _|ter-|* re n'a point|d'yeux.|
V:2
 A,2 A4 | ^G4 A2 | E2 C4 | B,4 A,2 | A2 G2 ^F2 | E2 ^F4 |[M:4/4] G2 E2 B4 | B,4 E4 |[M:3/4] A6 | %9
 ^G4 A2 | E2 C4 | B,4 A,2 | A2 G2 ^F2 | E2 ^F4 |[M:4/4] G2 E2 B,2 G,2 | F,4 E,2 ed |: %16
[M:3/4] c2 ^G2 A2 | E2 ^D2 E2 |[M:4/4] C4 B,B A2 |[M:3/4] ^G6 | A4 G2 | ^F2 G4 | %22
[M:4/4] E2 !courtesy!=F2 D2 G2 |[M:3/4] c2 A2 G^F | E2 ^F4 | G2 ^F2 E2 | ^D2 E2 B,2- | B,4 C2 | %28
 G,3 A, B,2 | E4 D2 |[M:4/4] C2 B,A, ^G,2 A,2 | E8 | A,8 :| %33
V:3
 [CEA]4 [DFA]2 | [EB]4 [EA]2 | [B,E]2 [CEA]2 [A,CE]2 | FG AB [EA]2 | [CEA]2 [DGB]2 [^FB]2 | %5
 [GBe]2 [^FAd]4 |[M:4/4] G4 d4 | B4 B4 |[M:3/4] [CEA]4 [CFA]2 | [EB]4 [EA]2 | %10
 [B,E]2 [CEA]2 [A,CE]2 | E2 E2 E2 | [CEA]2 [DGB]2 [^FB]2 | [GBe]2 [^FAd]4 | %14
[M:4/4] [DGB]2 [^CEA]2 [D^FB]2 [EGB]2 | [FAc]4 [E^GB]4 |:[M:3/4] A2 E2 E2 | %17
 [E^G]2 [B,^F]2 [B,EG]2 |[M:4/4] [EA]2 B2 [GB]2 [^D^FB]2 |[M:3/4] [B,E^G]6 | [CEA]2 [^CEA]2 [EA]2 | %21
 [D^FA]2 [DGB]2 [^DB]2 |[M:4/4] A4 A2 B2 |[M:3/4] [EGc]2 [EA]2 [EA][^DAB] | [GBe]2 [Bd]2 [Ac]2 | %25
 [DB]2 [DB]2 [EGB]2 | B2 B2 B2 | [D^FB]2 [DA]2 [EG]2 | [DG]2 [DG]2 [^DB]2 | [B,EG]4 [DG]2 | %30
[M:4/4] [EGc]2 [EGB]2 [E^GB]2 [EAc]2 | ^G2 A2 A2 G2 | [CEA]8 :| %33
V:4
 A,,2 A,4 | ^G,4 A,2 | E,2 C,4 | B,,4 A,,2 | A,2 G,2 ^F,2 | E,2 ^F,4 |[M:4/4] G,2 E,2 B,4 | %7
 B,,4 E,4 |[M:3/4] A,6 | ^G,4 A,2 | E,2 C,4 | B,,4 A,,2 | A,2 G,2 ^F,2 | E,2 ^F,4 | %14
[M:4/4] G,2 E,2 B,,2 G,,2 | F,,4 E,,2 ED |:[M:3/4] C2 ^G,2 A,2 | E,2 ^D,2 E,2 | %18
[M:4/4] C,4 B,,B, A,2 |[M:3/4] ^G,6 | A,4 G,2 | ^F,2 G,4 |[M:4/4] E,2 !courtesy!=F,2 D,2 G,2 | %23
[M:3/4] C2 A,2 G,^F, | E,2 ^F,4 | G,2 ^F,2 E,2 | ^D,2 E,2 B,,2- | B,,4 C,2 | G,,3 A,, B,,2 | %29
 E,4 D,2 |[M:4/4] C,2 B,,A,, ^G,,2 A,,2 | E,8 | A,,8 :| %33
V:5
 x6 | x6 | x6 | D2 D2 C2 | x6 | x6 |[M:4/4] E4 D2 E2- | E2 ^D2 E4 |[M:3/4] x6 | x6 | x6 | %11
 A,2 ^G,2 A,2 | x6 | x6 |[M:4/4] x8 | x8 |:[M:3/4] E2 B,2 C2 | x6 |[M:4/4] x8 |[M:3/4] x6 | x6 | %21
 x6 |[M:4/4] E2 F2 ^F2 G2 |[M:3/4] x6 | x6 | x6 | ^F2 ^G2 =G2 | x6 | x6 | x6 |[M:4/4] x8 | E4 E4 | %32
 x8 :| %33

